icon-themes/breeze_svg/cmd/lc_flowchartshapes.flowchart-or.svg

<svg viewBox="0 0 24 24" xmlns="http://www.w3.org/2000/svg"><path d="m11 4c-3.6551821.4586-6.5462439 3.3485-7 7h7zm2 0v7h7c-.459128-3.6423-3.350645-6.5418-7-7zm-9 9c.4591281 3.6424 3.3506448 6.5418 7 7v-7zm9 0v7c3.649355-.4582 6.540872-3.3576 7-7z" fill="#4d4d4d"/></svg>

<svg xmlns="http://www.w3.org/2000/svg" viewBox="0 0 24 24">
 <path 
     style="fill:#4d4d4d" 
     d="M 11 4 C 7.3448179 4.4586 4.4537561 7.3485 4 11 L 11 11 L 11 4 z M 13 4 L 13 11 L 20 11 C 19.540872 7.3577 16.649355 4.4582 13 4 z M 4 13 C 4.4591281 16.6424 7.3506448 19.5418 11 20 L 11 13 L 4 13 z M 13 13 L 13 20 C 16.649355 19.5418 19.540872 16.6424 20 13 L 13 13 z "
     />
 </svg>
